!!!COM:	la Rue, Pierre de
!!!CDT:	~1452///-1518/11/20
!!!OPR:	Missa De virginibus
!!!ONM:	1
!!!OTL:	Kyrie
!!!AGN:	Mass; Kyrie
!!!SCT:	Rue1015a
!!!SCA:	Rue1015a
!!!voices:	4
!!!voices-OPR:	4
**kern	**kern	**kern	**kern
*staff4	*staff3	*staff2	*staff1
*Ivox	*Ivox	*Ivox	*Ivox
*I"Bassus	*I"Tenor	*I"Contra	*I"Discantus
*I'B	*I'T	*I'C	*I'D
*>[A,B,C]	*>[A,B,C]	*>[A,B,C]	*>[A,B,C]
*>A	*>A	*>A	*>A
*clefF4	*clefGv2	*clefGv2	*clefG2
*k[]	*k[]	*k[]	*k[]
*M2/1	*M2/1	*M2/1	*M2/1
*met(C)	*met(C)	*met(C)	*met(C)
=1-	=1-	=1-	=1-
!!section: Kyrie I
!!!OMD: Kyrie I
0F	0r	1.f	0r
.	.	2d\	.
=2	=2	=2	=2
2G\	0r	2e\	0r
2E\	.	2c\	.
2F\	.	2.d\	.
[2F\	.	.	.
.	.	4e\	.
=3	=3	=3	=3
4F\]	0c	2f\	1.cc
4E\	.	.	.
2C/	.	2.g\	.
2F\	.	.	.
.	.	4f\	.
2A\	.	[2f\	2a/
=4	=4	=4	=4
1G	2d\	2f\]	2b-i\
.	2B\	2e\	2g/
1F	2c\	1f	2.a/
.	[2c\	.	.
.	.	.	4b-i\
=5	=5	=5	=5
0r	2c\]	0r	2cc\
.	2G/	.	2dd\
.	2c\	.	4dd\
.	.	.	4cc\
.	2e\	.	[2cc\
=6	=6	=6	=6
1r	1d	1r	2cc\]
.	.	.	2b\
[1F	1c	2r	1cc
.	.	[2f\	.
=7	=7	=7	=7
1F]	0r	2f\]	0r
.	.	2d\	.
2G\	.	2e\	.
2A\	.	2c\	.
=8	=8	=8	=8
2D\	1r	2.d\	1r
4F\	.	.	.
4G\	.	4c\	.
4A\	[1c	2A/	2r
4B-i\	.	.	.
[2A\	.	2F/	[2cc\
=9	=9	=9	=9
4A\]	1c]	2.A/	2cc\]
4G\	.	.	.
1F	.	.	2a/
.	.	4B-i\	.
.	2d\	1G	2b-i\
2E\	2e\	.	2g/
=10	=10	=10	=10
1F	2A/	1F	2.a/
.	4c\	.	.
.	4d\	.	4g/
1r	4e\	1r	2e/
.	4f\	.	.
.	[2e\	.	2c/
=11	=11	=11	=11
0r	4e\]	0r	2.e/
.	4d\	.	.
.	1c	.	.
.	.	.	4f/
.	.	.	1d
.	2B\	.	.
=12	=12	=12	=12
1F	1c	2r	1c
.	.	1f	.
1G	1r	.	1r
.	.	2e\	.
=13	=13	=13	=13
2.F\	1r	2f\	1r
.	.	2d\	.
4E\	.	.	.
1C	1c	4e\	2r
.	.	4f\	.
.	.	4g\	[2cc\
.	.	4e\	.
=14	=14	=14	=14
2F\	2d\	2a\	2cc\]
2G\	1d	1g	2b\
1A	.	.	2cc\
.	2c\	2f\	2a/
=15	=15	=15	=15
1G	2d\	1g	4b\
.	.	.	4cc\
.	2B\	.	4dd\
.	.	.	4b\
2r	2c\	1r	2ee\
2F\	2d\	.	[2dd\
=16	=16	=16	=16
2G\	2.e\	1r	2dd\]
2A\	.	.	2cc\
.	4d\	.	.
4B-i\	2d\	2r	4dd\
4A\	.	.	4cc\
4G\	[2c\	[2f\	4b\
4F\	.	.	4a/
=17	=17	=17	=17
1G	2c\]	2f\]	1b
.	2B\	2e\	.
1F	2c\	2f\	1a
.	2A/	2d\	.
=18	=18	=18	=18
2r	2B\	4e\	2r
.	.	4f\	.
2C/	2c\	4g\	1cc
.	.	4e\	.
2F\	1d	2a\	.
2G\	.	[2g\	2b\
=19	=19	=19	=19
1A	2r	2g\]	2cc\
.	2c\	2f\	2a/
1G	2d\	2g\	4b\
.	.	.	4cc\
.	2B\	2d\	4dd\
.	.	.	4b\
=20	=20	=20	=20
2C/	2c\	2g\	2ee\
2F\	2d\	2f\	1dd
2G\	2.e\	4b-i\	.
.	.	4a\	.
2A\	.	4g\	2cc\
.	4f\	4f\	.
=21	=21	=21	=21
4B-i\	2d\	2g\	4dd\
4A\	.	.	4cc\
4G\	1c	2.f\	4b-i\
4F\	.	.	4a/
1G	.	.	1b-i
.	.	4e\	.
.	2B-i\	2e\	.
=22	=22	=22	=22
0Fl	0cl	0fl	0al
!!LO:LB:i:g=z
=23||	=23||	=23||	=23||
*>B	*>B	*>B	*>B
*clefF4	*clefGv2	*clefGv2	*clefG2
*k[]	*k[]	*k[]	*k[]
*M2/1	*M2/1	*M2/1	*M2/1
*met(C2)	*met(C2)	*met(C2)	*met(C2)
!!section: Christe
!!!OMD: Christe
0r	0r	1c	0r
.	.	1f	.
=24.	=24.	=24.	=24.
1C	0r	1e	0r
1F	.	1a	.
=25	=25	=25	=25
1E	0r	2g\	1g
.	.	1g	.
1A	.	.	1cc
.	.	2f\	.
=26.	=26.	=26.	=26.
1G	1G	[0g	1b
2.C/	1c	.	1ee
4D\	.	.	.
=27	=27	=27	=27
4E\	1B	0g]	2dd\
4F\	.	.	.
1G	.	.	1dd
.	1e	.	.
2A\	.	.	2cc\
=28.	=28.	=28.	=28.
2.B-\	0d	1r	2dd\
.	.	.	4cc\
4A\	.	.	4b\
1F	.	1f	1a
=29	=29	=29	=29
1C	0r	1e	1g
1F	.	1a	1r
=30.	=30.	=30.	=30.
1E	0r	2g\	1g
.	.	1g	.
1A	.	.	1cc
.	.	2f\	.
=31	=31	=31	=31
1G	1G	[0g	1b
2.C/	1c	.	1ee
4D\	.	.	.
=32.	=32.	=32.	=32.
4E\	1B	0g]	2ee\
4F\	.	.	.
1G	.	.	1dd
.	1e	.	.
2A\	.	.	2cc\
=33	=33	=33	=33
2.B-\	2d\	0r	2.dd\
.	1d	.	.
4A\	.	.	4cc\
2F\	.	.	2a/
[2G\	2B\	.	[2b\
=34.	=34.	=34.	=34.
2G\]	2.e\	0r	2b\]
2E\	.	.	2g/
.	4d\	.	.
2F\	2c\	.	2a/
[2G\	2B\	.	[2b\
=35	=35	=35	=35
2G\]	1e	1r	2b\]
2E\	.	.	2g/
2F\	1d	2r	2a/
2G\	.	[2g\	2b\
=36.	=36.	=36.	=36.
1C	1c	2g\]	2e/
.	.	2e\	2cc\
1r	1r	2f\	2dd\
.	.	[2g\	[2ee\
=37	=37	=37	=37
1r	0r	2g\]	2ee\]
.	.	2e\	2cc\
2r	.	2f\	2dd\
[2c\	.	2g\	2ee\
=38.	=38.	=38.	=38.
2c\]	2r	2c\	2a/
2A\	2c\	2f\	2cc\
2B\	2d\	2g\	2b\
2c\	[2e\	[2a\	2a/
=39	=39	=39	=39
2c\	2e\]	2a\]	2r
2A\	2c\	2f\	2cc\
2B\	2d\	2g\	2b\
[2c\	[2e\	[2a\	2a/
=40.	=40.	=40.	=40.
4c\]	4e\]	2a\]	2.cc\
4F\	4d\	.	.
2A\	1c	4g\	.
.	.	4f\	4a/
1G	.	1e	1b
.	2B\	.	.
=41	=41	=41	=41
0F	0c	2r	2r
.	.	2.f\	2.a/
.	.	4g\	4b\
.	.	4a\	4cc\
.	.	4f\	4a/
=42.	=42.	=42.	=42.
2r	1r	2g\	2b\
2.c\	.	2.a\	2a/
.	2r	.	2.cc\
4F\	.	4g\	.
2A\	2c\	[2f\	.
.	.	.	4a/
=43	=43	=43	=43
1G	2d\	2f\]	1b
.	2B\	2e\	.
1F	1c	2f\	2a/
.	.	2a\	2cc\
=44.	=44.	=44.	=44.
1r	2G/	2b-i\	2dd\
.	2.c\	2g\	1ee
2r	.	2.a\	.
.	4d\	.	.
2A\	4e\	.	2cc\
.	4f\	4b-i\	.
=45	=45	=45	=45
2B\	2d\	1g	2dd\
2c\	1c	.	2ee\
1F	.	2f\	1a
.	2f\	2a\	.
=46.	=46.	=46.	=46.
2r	2e\	2g\	2r
2A\	2c\	1f	2cc\
2B\	2r	.	2dd\
[2c\	[2c\	2e\	[2ee\
=47	=47	=47	=47
2c\]	4c\]	2.a\	2ee\]
.	4d\	.	.
2A\	4e\	.	2cc\
.	4f\	4b-i\	.
2B\	2d\	1g	2dd\
2c\	[2c\	.	2ee\
=48.	=48.	=48.	=48.
2.F\	4c\]	1.f	1.ff
.	4B\	.	.
.	2A/	.	.
4E\	.	.	.
1D	1d	.	.
.	.	4g\	4ee\
.	.	4f\	4dd\
=49	=49	=49	=49
[0Cl	1.G	0g	0ee
.	4A/	.	.
.	4B\	.	.
=50.	=50.	=50.	=50.
0C_	0c	[0gl	[0eel
=51	=51	=51	=51
0C]	0cl	0g]	0ee]
!!LO:LB:i:g=z
=52||	=52||	=52||	=52||
*>C	*>C	*>C	*>C
*clefF4	*clefGv2	*clefGv2	*clefG2
*k[]	*k[]	*k[]	*k[]
*M2/1	*M2/1	*M2/1	*M2/1
*met(C)	*met(C)	*met(C)	*met(C)
!!section: Kyrie II
!!!OMD: Kyrie II
0r	0r	0f	1r
.	.	.	2.a/
.	.	.	4b\
=53	=53	=53	=53
0r	0r	2e\	2cc\
.	.	2d\	2.dd\
.	.	1f	.
.	.	.	4cc\
.	.	.	4a/
.	.	.	4b\
=54	=54	=54	=54
0r	0r	2e\	2cc\
.	.	2d\	2.dd\
.	.	1f	.
.	.	.	4ee\
.	.	.	2ff\
=55	=55	=55	=55
0r	0r	2g\	2ee\
.	.	4f\	2.dd\
.	.	4e\	.
.	.	4f\	.
.	.	4e\	4cc\
.	.	4d\	[2cc\
.	.	4c\	.
=56	=56	=56	=56
1r	0r	1d	2cc\]
.	.	.	2b\
[1F	.	[1c	1cc
=57	=57	=57	=57
1F]	2.A/	1c]	2r
.	.	.	2a/
.	4B\	.	.
2E\	2c\	2r	2g/
2D\	[2d\	[2f\	2f/
=58	=58	=58	=58
1F	4d\]	2f\]	1a
.	4c\	.	.
.	4A/	2d\	.
.	4B\	.	.
2E\	2c\	2e\	2g/
2D\	[2d\	[2f\	2f/
=59	=59	=59	=59
1F	4d\]	4f\]	2.a/
.	4e\	4g\	.
.	4f\	4a\	.
.	4d\	4f\	4b\
2.C/	1e	1g	2.cc\
4D\	.	.	4b\
=60	=60	=60	=60
2E\	2d\	2g\	2g/
2F\	1c	1f	1a
1D	.	.	.
.	2B\	4e\	4g/
.	.	4d\	4f/
=61	=61	=61	=61
0C	2c\	2g\	2e/
.	2A/	1f	2f/
.	1G	.	1g
.	.	2e\	.
=62	=62	=62	=62
0F	0F	0f	2r
.	.	.	2.a/
.	.	.	4b\
.	.	.	2cc\
=63	=63	=63	=63
0r	0r	2r	2b\
.	.	2.d\	1a
.	.	4e\	.
.	.	2f\	2dd\
=64	=64	=64	=64
2r	1r	2e\	2cc\
2.D\	.	2d\	2.ff\
.	2r	[1a	.
4E\	.	.	4ee\
4F\	[2A/	.	4ee\
4G\	.	.	4dd\
=65	=65	=65	=65
2A\	4A/]	1a]	1cc
.	4B\	.	.
2F\	2c\	.	.
2G\	2B\	2r	1r
2F\	[2A/	[2a\	.
=66	=66	=66	=66
1D	2A/]	2a\]	0r
.	2.f\	1a	.
[1A	.	.	.
.	4e\	.	.
.	4e\	4g\	.
.	4d\	4f\	.
=67	=67	=67	=67
2A\]	2c\	2e\	2r
2D\	1d	2f\	2.a/
1A	.	1e	.
.	.	.	4b\
.	2c\	.	2cc\
=68	=68	=68	=68
1r	0d	2r	2b\
.	.	2d\	1a
2r	.	2.f\	.
[2D\	.	.	[2ff\
.	.	4g\	.
=69	=69	=69	=69
4D\]	2r	1a	2ff\]
4E\	.	.	.
4F\	2.A/	.	4ee\
4G\	.	.	4dd\
2A\	.	2.a\	2.cc\
.	4B\	.	.
2F\	2c\	.	.
.	.	4g\	4b\
=70	=70	=70	=70
2G\	2B\	2e\	2g/
2F\	1A	1f	1a
1D	.	.	.
.	[2f\	[2a\	[2dd\
=71	=71	=71	=71
1.A	4f\]	2a\]	4dd\]
.	4e\	.	4cc\
.	4e\	4g\	2cc\
.	4d\	4f\	.
.	2c\	4e\	2a/
.	.	4f\	.
2G\	2d\	[2g\	[2b\
=72	=72	=72	=72
2A\	1A	2g\]	2b\]
2F\	.	1f	1a
1G	1B	.	.
.	.	2e\	2g/
=73	=73	=73	=73
2.F\	0A	2.f\	2.a/
4G\	.	4e\	4g/
2A\	.	2c\	2e/
2D\	.	2d\	2f/
=74	=74	=74	=74
4F\	1r	1A	2c/
4E\	.	.	.
4D\	.	.	1f
4C/	.	.	.
1D	2r	1d	.
.	2B\	.	4e/
.	.	.	4d/
=75	=75	=75	=75
0C	2.c\	2G/	0e
.	.	2.g\	.
.	4B\	.	.
.	2G/	.	.
.	.	4f\	.
.	2A/	4e\	.
.	.	4d\	.
=76	=76	=76	=76
1r	2E/	2.c\	0r
.	1A	.	.
.	.	4d\	.
[1C	.	2e\	.
.	4G/	[2f\	.
.	4F/	.	.
=77	=77	=77	=77
1C]	1G	4f\]	2r
.	.	4e\	.
.	.	2e\	2g/
2.F\	1F	2.f\	2.a/
4G\	.	4e\	4g/
=78	=78	=78	=78
2A\	0r	2c\	2e/
2D\	.	2d\	2f/
4F\	.	1A	2c/
4E\	.	.	.
4D\	.	.	[2f/
4C/	.	.	.
=79	=79	=79	=79
1D	2r	1d	2f/]
.	2B\	.	4e/
.	.	.	4d/
1C	2.c\	2r	2e/
.	.	2G/	[2g/
.	4B\	.	.
=80	=80	=80	=80
2.C/	2G/	4c\	4g/]
.	.	4d\	4f/
.	2A/	4e\	4e/
4D\	.	4f\	4d/
2E\	2E/	2g\	2.c/
2F\	[2A/	[2c\	.
.	.	.	4d/
=81	=81	=81	=81
2C/	2A/]	2c\]	2e/
2D\	4G/	2B\	1f
.	4F/	.	.
1C	1G	1c	.
.	.	.	2e/
=82	=82	=82	=82
0Fl	0Fl	0cl	0fl
==	==	==	==
*-	*-	*-	*-
!!!RDF**kern: l=long note in original notation
!!!RDF**kern: i=editorial accidental
!!!ENC:	Chris Gage 06-24-2013
!!!END:	2013/08/05/
!!!EED:	Jesse Rodin
!!!EEV:	2013/08/06/
!!!ONB:	Translated from MusicXML and edited on 2013/08/06/ by Craig Sapp
!!muse2ps: T^@{OPR}^u^@{ONM}{. }@{OTL}^C^@{COM}^i2I150v85,85,85,150Q8c90
